X: 30373
T: Old Pigeon On The Gate, The
R: reel
M: 4/4
K: Gmajor
dG~G2 dGeG|{e}dcde dcAG|~=F3A cF~F2|Ac=fc A=F (3ABc|
dG~G2 dGeG|{e}dcde dcAG|=F2Ac ^fdge|fd{cd}cA GABc:|
|:dg{a}gf g2-~g2|dg~g2 bgag|ec~c2 gceg|~f3g fdcA|
dg{a}gf g2-~g2|dg~g2 bgag|ec~c2 gceg|fd{cd}cA GABc:|

